X:1
T:Nabadzīgais  stallīt
T:18. gs. poļu koļenda mel. P. Studziński harm. St. Surzyński
T:Nabadzīgais  stallīt
T:(Ach, ubogi żłobie)
C:18. gs. poļu koļenda
C:mel. P. Studziński
C:harm. St. Surzyński
%%score [ ( 1 2 ) ( 3 4 ) ]
L:1/8
Q:1/4=80
M:3/4
K:G
V:1 treble nm="P1"
V:2 treble 
V:3 bass nm="P2"
V:4 bass 
V:1
!p!"^Andante" GF G2 A2 | B4 A2 | BA B2 c2 | A4 !fermata!A2 |!mf! AB c2 c2 | BA B2 G2 | FG A2 A2 | %7
w: 6. ļos Ta- vā|priek- šā|krī- tam mēs uz|vai- ga,|6. cot Te- vi|lo- pu vi- dū|ša- jā tum- šā|
w: 1. ba- dzī- gais|stal- līt,|kas ir te- vī|re- dzams?|1. gāks skats par|de- bess gal- mu,|ša- jā ma- zā|
w: 2. tī- tāj mans|dār- gais,|cik šeit kļu- vi|na- bags!|2. ņās de- bess|mā- jas pret šo|graus- tu no- mai-|
w: 3. Tu ne- va-|rē- ji|tēr- pties dār- gās|drē- bēs,|3. vē- lē- ties|lep- nu pi- li,|ne- vis gu- lēt|
w: 4. si pie mums|nā- cis|maz- gāt grē- ku|vai- nas,|4. šo trai- pu|maz- gā- ša- nai|jau lej rūg- tās|
w: 5. dzot Te- vi|rau- dam,|kas var sa- vā|sir- dī|5. likt vie- nal-|dzīgs un * mie-|lai līdz' ne- rau-|
 (GA) B4 | AB c2 c2 | BA B2 G2 | FG A2 A2 | G4 !fermata!G2 |] %12
w: stal- * lī.|6. cot Te- vi|lo- pu vi- dū|ša- jā tum- šā|stal- 6.|
w: Bēr- * nā.|1. gāks skats par|de- bess gal- mu,|ša- jā ma- zā|Bēr- nā.|
w: nī- * ji.|2. ņās de- bess|mā- jas pret šo|graus- tu no- mai-|nī- 2.|
w: si- * lē?|3. vē- lē- ties|lep- nu pi- li,|ne- vis gu- lēt|si- 3.|
w: as'- * ras.|4. šo trai- pu|maz- gā- ša- nai|jau lej rūg- tās|as'- 4.|
w: dā- * tu?|5. likt vie- nal-|dzīgs un mie- rīgs,|lai līdz' ne- rau-|dā- 5.|
V:2
 DD D2 F2 | G4 F2 | GF G2 G2 | (F2 E2) F2 | E^G A2 A2 | GF F2 E2 | DD (D^C) D2 | D2 D4 | %8
 EE (E_E) D2 | D=E ^D2 B,2 | =DB, E2 (DC) | (B,2 E2) D2 |] %12
V:3
!p! B,C B,2 D2 | D4 D2 | DD D2 E2 | (D2 ^C2) D2 |!mf! ED (E_E) D2 | D=E ^D2 E2 | %6
 =DB, (A,G,) (F,C) | (B,A,) G,4 | G,^G, (A,=G,) F,2 | G,E, F,2 G,2 | A,G, G,2 F,2 | (G,2 C2) B,2 |] %12
V:4
 G,A, G,2 D,2 | G,4 D,2 | [G,,G,]D, G,2 C,2 | (D,2 A,,2) !fermata!D,2 | CB, (A,G,) F,2 | %5
 G,C B,2 E,2 | B,G, (F,E,) D,2 | (G,F,) (G,F,E,D,) | C,B,, A,,2 D,2 | G,,C, B,,2 E,2 | %10
 D,E, C,2 D,2 | [G,,G,]4 !fermata!G,2 |] %12

